app/assets/img/fellowships/icon-tab-fellows.svg

<svg id="Layer_1" data-name="Layer 1" xmlns="http://www.w3.org/2000/svg" viewBox="0 0 20.38 24.96">
    <defs>
        <style>
            .cls-1{fill:#fff;}
        </style>
    </defs>
    <title>
        all-icons
    </title>
    <path class="cls-1" d="M10.19 12a6.08 6.08 0 0 0 6.14-6 6.08 6.08 0 0 0-6.14-6 6.08 6.08 0 0 0-6.14 6 6.08 6.08 0 0 0 6.14 6zm0-11a5.08 5.08 0 0 1 5.14 5 5.08 5.08 0 0 1-5.14 5 5.08 5.08 0 0 1-5.14-5 5.08 5.08 0 0 1 5.14-5zM13.88 14.92H6.5a6.51 6.51 0 0 0-6.5 6.5V25h1v-3.58a5.51 5.51 0 0 1 5.5-5.5h7.38a5.51 5.51 0 0 1 5.5 5.5V25h1v-3.58a6.51 6.51 0 0 0-6.5-6.5z"/>
</svg>

<svg id="Layer_1" data-name="Layer 1" xmlns="http://www.w3.org/2000/svg" viewBox="0 0 20.38 24.96"><defs><style>.cls-1{fill:#fff;}</style></defs><title>all-icons</title><path class="cls-1" d="M10.19,12a6.08,6.08,0,0,0,6.14-6,6.08,6.08,0,0,0-6.14-6A6.08,6.08,0,0,0,4.05,6,6.08,6.08,0,0,0,10.19,12Zm0-11a5.08,5.08,0,0,1,5.14,5,5.08,5.08,0,0,1-5.14,5A5.08,5.08,0,0,1,5.05,6,5.08,5.08,0,0,1,10.19,1Z"/><path class="cls-1" d="M13.88,14.92H6.5A6.51,6.51,0,0,0,0,21.42V25H1V21.42a5.51,5.51,0,0,1,5.5-5.5h7.38a5.51,5.51,0,0,1,5.5,5.5V25h1V21.42A6.51,6.51,0,0,0,13.88,14.92Z"/></svg>
